assets/sonr-icons/zap.svg

<svg xmlns="http://www.w3.org/2000/svg" width="24" height="24" fill="none" viewBox="0 0 24 24"><path fill="#000" fill-rule="evenodd" d="M14 2.40139C14 0.917343 12.0752 0.334432 11.252 1.56934L3.18617 13.6679C2.52174 14.6647 3.23611 16 4.43427 16H10V21.5986C10 23.0825 11.9247 23.6658 12.7481 22.4307L20.8139 10.332C21.4784 9.33511 20.7637 8 19.5657 8H14V2.40139ZM5.3685 14L12 4.05281V8.5C12 9.32848 12.6717 10 13.5 10H18.6315L12 19.9472V15.5C12 14.6716 11.3284 14 10.5 14H5.3685Z" clip-rule="evenodd"/></svg>

<svg xmlns="http://www.w3.org/2000/svg" width="24" height="24" fill="none"><path fill="currentColor" fill-rule="evenodd" d="M14 2.401c0-1.484-1.925-2.067-2.748-.832L3.186 13.668c-.664.997.05 2.332 1.248 2.332H10v5.599c0 1.483 1.925 2.067 2.748.832l8.066-12.099C21.478 9.335 20.764 8 19.566 8H14zM5.369 14 12 4.053V8.5a1.5 1.5 0 0 0 1.5 1.5h5.131L12 19.947V15.5a1.5 1.5 0 0 0-1.5-1.5z" clip-rule="evenodd"/></svg>
